X:1
T:The Foxhunter's (Slip Jig)
M:9/8
L:1/8
R:slip jig
O:Trad. (21.10.2015/NS)
K:D
|: "D" FGF  F2D "G"    G2E | "D"  FGF F2D "A" E2D | "D" FGF  F2D "G" G2B | "D" AFD D2F E2D :|
|: "G" B=cB BAG "D/F#" FGA | "Em" B2E E2F     G2B | "D" AB^c dcB "A" ABc | "D" d2D D2F E2D :|
